X:36
T:Honeymoon Cottage* (hornpipe), The 
B:HOC.052
F:file ID hoc/36honey
Z:bill@capeirish.com
Y:"Country dance". 
N:1:In mm 1,3,5 source has |DAAA|.
N:2:I added "Cottage" to Harding's title to avoid confusion 
with "Honeymoon Reel".
N:3:I doubled the second part.
Q:150
M:C|
L:1/8
R:hornpipe
K:A
EAAG Acec|dcBA GBB2|EAAG Acec|dcBc A2A2 |
EAAG Acec|dcBA GBB2|EAAG Acec|dcBc A2A2 :|
|:aee2 fgaf|ecBA GBB2|AEE2 FGAB|cdBc A2A2 |
aee2 fgaf|ecBA GBB2|EAAG Acec|1 dcBc A2A2 :|\
[2 dcBc A2A2-|A8|]

